X:1
T:Title
%%score { 1 | 2 }
L:1/8
Q:1/4=100
M:4/4
K:C
V:1 treble nm="Grand Piano"
V:2 bass 
V:1
 C3 D E2 G2 | A3 G G2 E2 | [G,CE]4 [F,B,E]3 [F,B,D] | C8 | C3[K:treble] D E2 G2 | A3 G G2 E2 | %6
w: Richard~W.~Beaty * * *||||||
 [G,CE]4 [F,B,E]3 [F,B,D] | C8 | c3 B A2 G2 | [CA]3 G G2 E2 | [EG]2 [CE]2 [Ec]3 B | %11
w: |||||
 A2 [B,^G]2 [CA]2 [CE]2 | C3 D E2 G2 | [CA]3 [B,G] [CG]2[K:bass] [G,CE]2 | %14
w: |||
 [G,CE]4 [F,B,E]3 [F,B,D] | [E,C]8 |] %16
w: ||
V:2
 [C,E,]3 [C,F,C] [C,G,C]2 [C,E,C]2 | [C,F,C]3 [C,E,C] [C,E,C]2 [C,G,C]2 | C,2 E,,2 G,,3 G,, | %3
 [C,E,]8 | [C,E,]3 [C,F,C] [C,G,C]2 [C,E,C]2 | [C,F,C]3 [C,E,C] [C,E,C]2 [C,G,C]2 | %6
 C,2 E,,2 G,,3 G,, | [C,E,]8 | [C,E,C]3 [E,G,C] [F,C]2 [C,E,C]2 | %9
 [F,,F,]3 [C,E,C] [C,E,C]2 [C,G,C]2 | [B,,G,]2 [C,G,]2 [A,,A,]3 [D,F,D] | %11
 [E,C]2 [E,,E,]2 [A,,E,]2 [A,,E,]2 | [C,E,]3 [C,F,C] [C,G,C]2 [C,E,C]2 | %13
 [F,,F,]3 [G,,D,] [C,E,]2 C,2 | C,2 E,,2 G,,3 G,, | C,8 |] %16

